icons/puppeteer.svg

<?xml version="1.0" encoding="UTF-8"?>
<svg width="256px" height="383px" viewBox="0 0 256 383" version="1.1" xmlns="http://www.w3.org/2000/svg" xmlns:xlink="http://www.w3.org/1999/xlink" preserveAspectRatio="xMidYMid">
		<g>
				<path d="M253.4216,214.246117 L2.1916,214.246117 L2.1916,200.078117 C2.1916,190.558117 9.9086,182.841117 19.4276,182.841117 L236.1846,182.841117 C245.7046,182.841117 253.4216,190.558117 253.4216,200.078117 L253.4216,214.246117 Z" fill="#DFDEDF"></path>
				<path d="M235.9192,378.552817 L19.6932,378.552817 C10.0272,378.552817 2.1912,370.716817 2.1912,361.050817 L2.1912,214.245817 L253.4212,214.245817 L253.4212,361.050817 C253.4212,370.716817 245.5862,378.552817 235.9192,378.552817" fill="#FFFFFF"></path>
				<path d="M250.302,211.397517 L250.302,198.691517 C250.302,191.190517 244.222,185.109517 236.721,185.109517 L19.279,185.109517 C11.778,185.109517 5.698,191.190517 5.698,198.691517 L5.698,211.397517 L250.302,211.397517 Z M250.302,362.866517 L250.302,217.095517 L5.698,217.095517 L5.698,362.866517 C5.698,370.367517 11.778,376.447517 19.279,376.447517 L236.721,376.447517 C244.222,376.447517 250.302,370.367517 250.302,362.866517 Z M20.554,179.412517 L21.4,170.176517 L17.808,179.486517 C18.295,179.449517 18.782,179.412517 19.279,179.412517 L20.554,179.412517 Z M233.955,163.842517 L235.209,179.412517 L236.721,179.412517 C237.53,179.412517 238.322,179.478517 239.105,179.575517 L233.955,163.842517 Z M251.202,186.006517 C254.179,189.400517 256,193.832517 256,198.691517 L256,362.866517 C256,373.497517 247.351,382.145517 236.721,382.145517 L19.279,382.145517 C8.649,382.145517 -8.52651283e-14,373.497517 -8.52651283e-14,362.866517 L-8.52651283e-14,198.691517 C-8.52651283e-14,193.539517 2.043,188.864517 5.347,185.401517 L24.567,135.584517 L32.948,44.0305167 L42.404,44.8955167 L34.852,127.387517 L37.512,128.413517 L33.902,137.771517 L30.09,179.412517 L225.683,179.412517 L214.829,44.6675167 L224.293,43.9045167 L230.695,123.373517 L230.699,123.372517 L251.202,186.006517 Z M21.1565,194.396517 C23.5325,194.396517 25.4585,196.322517 25.4585,198.698517 C25.4585,201.074517 23.5325,203.000517 21.1565,203.000517 C18.7805,203.000517 16.8545,201.074517 16.8545,198.698517 C16.8545,196.322517 18.7805,194.396517 21.1565,194.396517 Z M35.8645,194.396517 C38.2405,194.396517 40.1665,196.322517 40.1665,198.698517 C40.1665,201.074517 38.2405,203.000517 35.8645,203.000517 C33.4885,203.000517 31.5625,201.074517 31.5625,198.698517 C31.5625,196.322517 33.4885,194.396517 35.8645,194.396517 Z M50.1091,194.396517 C52.4851,194.396517 54.4111,196.322517 54.4111,198.698517 C54.4111,201.074517 52.4851,203.000517 50.1091,203.000517 C47.7331,203.000517 45.8071,201.074517 45.8071,198.698517 C45.8071,196.322517 47.7331,194.396517 50.1091,194.396517 Z" fill="#000000"></path>
				<path d="M36.0217,287.748117 C36.7607,286.893117 37.1497,285.769117 37.1497,284.374117 C37.1497,282.978117 36.7607,281.899117 36.0217,281.044117 C35.2437,280.189117 34.1537,279.784117 32.7537,279.784117 L25.9067,279.784117 L25.9067,289.007117 L32.7537,289.007117 C34.1537,289.007117 35.2437,288.602117 36.0217,287.748117 Z M32.7537,274.251117 C35.7097,274.251117 38.0447,275.151117 39.7947,276.995117 C41.5457,278.839117 42.4017,281.313117 42.4017,284.374117 C42.4017,287.477117 41.5457,289.907117 39.8347,291.751117 C38.0837,293.597117 35.7497,294.541117 32.7537,294.541117 L25.9067,294.541117 L25.9067,306.955117 L20.6157,306.955117 L20.6157,274.251117 L32.7537,274.251117 Z M61.2981,294.307617 L61.2981,284.767617 L66.9961,284.767617 L66.9961,306.307617 L61.2981,306.307617 L61.2981,304.365617 C59.5711,306.091617 57.3271,306.954617 54.5211,306.954617 C51.9311,306.954617 49.8591,306.091617 48.2621,304.408617 C46.6651,302.725617 45.8881,300.566617 45.8881,297.890617 L45.8881,284.767617 L51.5861,284.767617 L51.5861,296.681617 C51.5861,298.192617 51.9741,299.444617 52.7941,300.351617 C53.5711,301.257617 54.6071,301.732617 55.9451,301.732617 C59.5281,301.732617 61.2981,299.271617 61.2981,294.307617 Z M89.2243,300.221717 C90.3463,299.055717 90.9073,297.501717 90.9073,295.559717 C90.9073,293.617717 90.3463,292.019717 89.2243,290.854717 C88.0583,289.688717 86.6343,289.084717 84.8643,289.084717 C83.2673,289.084717 81.8433,289.688717 80.5913,290.897717 C79.3393,292.106717 78.7353,293.659717 78.7353,295.559717 C78.7353,297.458717 79.3393,299.013717 80.5913,300.177717 C81.8433,301.387717 83.2673,301.991717 84.8643,301.991717 C86.6343,301.991717 88.0583,301.387717 89.2243,300.221717 Z M85.8573,284.120717 C88.6633,284.120717 91.1663,285.200717 93.2823,287.358717 C95.3973,289.559717 96.4323,292.278717 96.4323,295.559717 C96.4323,298.839717 95.3973,301.559717 93.2823,303.717717 C91.1663,305.876717 88.7063,306.954717 85.8573,306.954717 C83.0513,306.954717 80.6773,306.177717 78.7353,304.624717 L78.7353,316.583717 L73.0373,316.583717 L73.0373,284.767717 L78.7353,284.767717 L78.7353,286.494717 C80.6343,284.897717 83.0083,284.120717 85.8573,284.120717 Z M116.9348,300.221717 C118.0568,299.055717 118.6178,297.501717 118.6178,295.559717 C118.6178,293.617717 118.0568,292.019717 116.9348,290.854717 C115.7688,289.688717 114.3448,289.084717 112.5748,289.084717 C110.9778,289.084717 109.5538,289.688717 108.3018,290.897717 C107.0498,292.106717 106.4448,293.659717 106.4448,295.559717 C106.4448,297.458717 107.0498,299.013717 108.3018,300.177717 C109.5538,301.387717 110.9778,301.991717 112.5748,301.991717 C114.3448,301.991717 115.7688,301.387717 116.9348,300.221717 Z M113.5668,284.120717 C116.3728,284.120717 118.8768,285.200717 120.9928,287.358717 C123.1068,289.559717 124.1428,292.278717 124.1428,295.559717 C124.1428,298.839717 123.1068,301.559717 120.9928,303.717717 C118.8768,305.876717 116.4168,306.954717 113.5668,306.954717 C110.7618,306.954717 108.3878,306.177717 106.4448,304.624717 L106.4448,316.583717 L100.7478,316.583717 L100.7478,284.767717 L106.4448,284.767717 L106.4448,286.494717 C108.3448,284.897717 110.7188,284.120717 113.5668,284.120717 Z M132.5583,293.055717 L142.9613,293.055717 C142.6163,291.717717 141.9683,290.725717 141.0623,290.076717 C140.1553,289.429717 139.0773,289.084717 137.8673,289.084717 C136.7033,289.084717 135.5803,289.429717 134.5873,290.120717 C133.5513,290.811717 132.8603,291.803717 132.5583,293.055717 Z M137.8673,284.120717 C140.8033,284.120717 143.3503,285.156717 145.4653,287.185717 C147.5803,289.257717 148.6593,291.889717 148.7893,295.127717 L148.7893,297.070717 L132.3863,297.070717 C132.6883,298.580717 133.3353,299.788717 134.3293,300.696717 C135.3213,301.602717 136.4433,302.076717 137.7813,302.076717 C140.2423,302.076717 142.0123,301.127717 143.1343,299.228717 L148.2283,300.307717 C147.3213,302.509717 145.9403,304.150717 144.1273,305.272717 C142.3143,306.394717 140.1993,306.954717 137.7813,306.954717 C134.6733,306.954717 132.0403,305.876717 129.9253,303.761717 C127.8103,301.646717 126.7303,298.883717 126.7303,295.559717 C126.7303,292.236717 127.8103,289.473717 129.9683,287.314717 C132.0833,285.200717 134.7173,284.120717 137.8673,284.120717 Z M164.4997,301.646517 C165.5787,301.646517 166.7877,301.300517 168.0827,300.610517 L169.7227,305.358517 C167.7367,306.437517 165.8807,306.955517 164.1107,306.955517 C161.4777,306.955517 159.4057,306.221517 157.8947,304.796517 C156.3847,303.373517 155.6507,301.257517 155.6507,298.365517 L155.6507,289.429517 L151.0317,289.429517 L151.0317,284.767517 L155.6507,284.767517 L155.6507,278.250517 L161.3487,278.250517 L161.3487,284.767517 L168.3847,284.767517 L168.3847,289.429517 L161.3487,289.429517 L161.3487,297.933517 C161.3487,300.394517 162.3847,301.646517 164.4997,301.646517 Z M176.4543,293.055717 L186.8573,293.055717 C186.5123,291.717717 185.8643,290.725717 184.9583,290.076717 C184.0513,289.429717 182.9733,289.084717 181.7633,289.084717 C180.5993,289.084717 179.4763,289.429717 178.4833,290.120717 C177.4473,290.811717 176.7563,291.803717 176.4543,293.055717 Z M181.7633,284.120717 C184.6993,284.120717 187.2463,285.156717 189.3613,287.185717 C191.4763,289.257717 192.5553,291.889717 192.6853,295.127717 L192.6853,297.070717 L176.2823,297.070717 C176.5843,298.580717 177.2313,299.788717 178.2253,300.696717 C179.2173,301.602717 180.3393,302.076717 181.6773,302.076717 C184.1383,302.076717 185.9083,301.127717 187.0303,299.228717 L192.1233,300.307717 C191.2173,302.509717 189.8363,304.150717 188.0233,305.272717 C186.2103,306.394717 184.0953,306.954717 181.6773,306.954717 C178.5693,306.954717 175.9363,305.876717 173.8213,303.761717 C171.7063,301.646717 170.6263,298.883717 170.6263,295.559717 C170.6263,292.236717 171.7063,289.473717 173.8643,287.314717 C175.9793,285.200717 178.6133,284.120717 181.7633,284.120717 Z M202.0495,293.055717 L212.4525,293.055717 C212.1075,291.717717 211.4595,290.725717 210.5535,290.076717 C209.6465,289.429717 208.5685,289.084717 207.3585,289.084717 C206.1945,289.084717 205.0715,289.429717 204.0785,290.120717 C203.0425,290.811717 202.3515,291.803717 202.0495,293.055717 Z M207.3585,284.120717 C210.2945,284.120717 212.8415,285.156717 214.9565,287.185717 C217.0715,289.257717 218.1505,291.889717 218.2805,295.127717 L218.2805,297.070717 L201.8775,297.070717 C202.1795,298.580717 202.8265,299.788717 203.8205,300.696717 C204.8125,301.602717 205.9345,302.076717 207.2725,302.076717 C209.7335,302.076717 211.5035,301.127717 212.6255,299.228717 L217.7195,300.307717 C216.8125,302.509717 215.4315,304.150717 213.6185,305.272717 C211.8055,306.394717 209.6905,306.954717 207.2725,306.954717 C204.1645,306.954717 201.5315,305.876717 199.4165,303.761717 C197.3015,301.646717 196.2215,298.883717 196.2215,295.559717 C196.2215,292.236717 197.3015,289.473717 199.4595,287.314717 C201.5745,285.200717 204.2085,284.120717 207.3585,284.120717 Z M236.0197,284.465817 C236.6677,284.465817 237.1857,284.508817 237.5317,284.637817 L237.2287,290.120817 L235.9777,290.120817 C230.8407,290.120817 228.2927,293.185817 228.2927,299.358817 L228.2927,306.307817 L222.5957,306.307817 L222.5957,284.767817 L228.2927,284.767817 L228.2927,288.695817 C230.2357,285.889817 232.8257,284.465817 236.0197,284.465817 Z" fill="#000000"></path>
				<polygon fill="#00D8A2" points="211.0954 132.638217 241.8364 117.797217 241.8364 102.957217 170.8134 69.0352167 241.8364 32.4642167 241.8364 18.1542167 212.1554 4.37321674 128.0594 46.2442167 42.5494 4.37321674 14.9884 19.2142167 14.9884 31.9342167 81.7704 68.5052167 14.9884 102.427217 14.9884 117.797217 43.6094 132.638217 128.4124 89.1762167"></polygon>
				<path d="M214.9494,126.584517 L214.9494,120.192517 L238.0894,108.201517 L238.0894,115.381517 L214.9494,126.584517 Z M16.8504,108.033517 L39.2104,120.869517 L39.2104,125.979517 L16.8504,114.667517 L16.8504,108.033517 Z M131.3834,81.0395167 L208.3024,119.044517 L208.3024,126.686517 L131.3834,87.2815167 L131.3834,81.0395167 Z M45.8574,120.156517 L124.7364,81.0475167 L124.7364,87.2795167 L45.8574,127.187517 L45.8574,120.156517 Z M101.7094,56.2515167 L21.8874,17.7135167 L42.5614,7.20651674 L128.0594,51.5295167 L212.1264,7.22551674 L233.5304,18.1885167 L155.6894,57.3625167 C152.5774,58.9285167 152.5824,63.3735167 155.6974,64.9325167 L232.7354,103.489517 L212.7674,113.836517 L128.0594,70.4335167 L41.8534,114.722517 L22.1644,103.419517 L101.7534,63.8575167 C104.9064,62.2905167 104.8804,57.7825167 101.7094,56.2515167 L101.7094,56.2515167 Z M17.8444,30.7705167 L17.8444,23.7565167 L92.2904,60.8985167 L84.7644,63.9055167 L17.8444,30.7705167 Z M170.4984,64.3185167 C170.3964,64.2565167 163.3684,60.9405167 163.3684,60.9405167 L238.0894,23.3355167 L238.0894,30.3805167 L170.4984,64.3185167 Z M177.9774,68.0015167 L243.6524,35.0255167 C244.3174,34.6915167 244.7374,34.0105167 244.7374,33.2665167 L244.7374,17.6635167 C244.7374,16.9245167 244.3234,16.2485167 243.6664,15.9115167 L213.0334,0.221516741 C212.4724,-0.0654832591 211.8074,-0.0664832591 211.2454,0.218516741 L128.9424,41.9825167 C128.3874,42.2645167 127.7314,42.2675167 127.1734,41.9885167 L43.4204,0.206516741 C42.8634,-0.0714832591 42.2064,-0.0684832591 41.6504,0.213516741 L11.2794,15.6475167 C10.6184,15.9835167 10.2024,16.6615167 10.2024,17.4025167 L10.2024,33.2575167 C10.2024,34.0065167 10.6274,34.6905167 11.2994,35.0225167 L77.2504,67.6065167 L11.6044,100.201517 C10.9474,100.528517 10.5254,101.193517 10.5124,101.928517 L10.2254,117.519517 C10.2114,118.274517 10.6314,118.970517 11.3044,119.311517 L42.8414,135.267517 C43.3984,135.548517 44.0554,135.549517 44.6134,135.269517 L127.1714,93.8145167 C127.7294,93.5335167 128.3884,93.5355167 128.9464,93.8185167 L210.4754,135.272517 C211.0234,135.550517 211.6704,135.557517 212.2244,135.289517 L243.6264,120.086517 C244.3054,119.757517 244.7374,119.069517 244.7374,118.315517 L244.7374,102.025517 C244.7374,101.274517 244.3104,100.589517 243.6364,100.258517 L177.9774,68.0015167 Z" fill="#000000"></path>
		</g>
</svg>

<svg xmlns="http://www.w3.org/2000/svg" viewBox="0 0 256 382.146">
  <path fill="#dfdedf" d="M253.422 214.246H2.192v-14.168c0-9.52 7.717-17.237 17.236-17.237h216.757c9.52 0 17.237 7.717 17.237 17.237z"/>
  <path fill="#fff" d="M235.92 378.553H19.692c-9.666 0-17.502-7.836-17.502-17.502V214.246h251.23V361.05c0 9.666-7.835 17.502-17.502 17.502"/>
  <path d="M250.302 211.398v-12.706c0-7.501-6.08-13.582-13.581-13.582H19.279c-7.501 0-13.581 6.08-13.581 13.582v12.706zm0 151.469V217.096H5.698v145.77c0 7.502 6.08 13.582 13.581 13.582h217.442c7.501 0 13.581-6.08 13.581-13.581zM20.554 179.413l.846-9.236-3.592 9.31c.487-.037.974-.074 1.471-.074zm213.401-15.57 1.254 15.57h1.512c.809 0 1.601.066 2.384.163zm17.247 22.164c2.977 3.394 4.798 7.826 4.798 12.685v164.175c0 10.63-8.649 19.279-19.279 19.279H19.279C8.649 382.146 0 373.498 0 362.866V198.693c0-5.152 2.043-9.827 5.347-13.29l19.22-49.817 8.381-91.554 9.456.865-7.552 82.492 2.66 1.026-3.61 9.358-3.812 41.64h195.593L214.829 44.669l9.464-.763 6.402 79.469.004-.001zm-230.046 8.39a4.302 4.302 0 1 1 0 8.603 4.302 4.302 0 0 1 0-8.603zm14.708 0a4.302 4.302 0 1 1 0 8.603 4.302 4.302 0 0 1 0-8.603zm14.245 0a4.302 4.302 0 1 1 0 8.603 4.302 4.302 0 0 1 0-8.603z"/>
  <path d="M36.022 287.748c.739-.855 1.128-1.979 1.128-3.374 0-1.396-.39-2.475-1.128-3.33-.778-.855-1.868-1.26-3.268-1.26h-6.847v9.223h6.847c1.4 0 2.49-.405 3.268-1.259zm-3.268-13.497c2.956 0 5.29.9 7.04 2.744 1.752 1.844 2.608 4.318 2.608 7.38 0 3.102-.856 5.532-2.567 7.376-1.751 1.846-4.085 2.79-7.081 2.79h-6.847v12.414h-5.291v-32.704zm28.544 20.057v-9.54h5.698v21.54h-5.698v-1.942c-1.727 1.726-3.97 2.589-6.777 2.589-2.59 0-4.662-.863-6.259-2.546-1.597-1.683-2.374-3.842-2.374-6.518v-13.123h5.698v11.914c0 1.51.388 2.763 1.208 3.67.777.906 1.813 1.38 3.151 1.38 3.583 0 5.353-2.46 5.353-7.424zm27.926 5.914c1.122-1.166 1.683-2.72 1.683-4.662 0-1.942-.56-3.54-1.683-4.705-1.166-1.166-2.59-1.77-4.36-1.77-1.597 0-3.02.604-4.273 1.813-1.252 1.209-1.856 2.762-1.856 4.662 0 1.899.604 3.454 1.856 4.618 1.252 1.21 2.676 1.814 4.273 1.814 1.77 0 3.194-.604 4.36-1.77zm-3.367-16.101c2.806 0 5.31 1.08 7.425 3.238 2.115 2.2 3.15 4.92 3.15 8.2 0 3.28-1.035 6-3.15 8.159-2.116 2.159-4.576 3.237-7.425 3.237-2.806 0-5.18-.777-7.122-2.33v11.959h-5.698v-31.816h5.698v1.727c1.9-1.597 4.273-2.374 7.122-2.374zm31.078 16.1c1.122-1.165 1.683-2.72 1.683-4.661 0-1.942-.561-3.54-1.683-4.705-1.166-1.166-2.59-1.77-4.36-1.77-1.597 0-3.021.604-4.273 1.813-1.252 1.209-1.857 2.762-1.857 4.662 0 1.899.605 3.454 1.857 4.618 1.252 1.21 2.676 1.814 4.273 1.814 1.77 0 3.194-.604 4.36-1.77zm-3.368-16.1c2.806 0 5.31 1.08 7.426 3.238 2.114 2.2 3.15 4.92 3.15 8.2 0 3.28-1.036 6-3.15 8.159-2.116 2.159-4.576 3.237-7.426 3.237-2.805 0-5.18-.777-7.122-2.33v11.959h-5.697v-31.816h5.697v1.727c1.9-1.597 4.274-2.374 7.122-2.374zm18.991 8.935h10.403c-.345-1.338-.993-2.33-1.899-2.98-.907-.646-1.985-.991-3.195-.991a5.684 5.684 0 0 0-3.28 1.036c-1.036.69-1.727 1.683-2.029 2.935zm5.31-8.935c2.935 0 5.482 1.036 7.597 3.065 2.115 2.072 3.194 4.704 3.324 7.942v1.943h-16.403c.302 1.51.95 2.718 1.943 3.626.992.906 2.114 1.38 3.452 1.38 2.461 0 4.231-.95 5.353-2.848l5.094 1.079c-.907 2.202-2.288 3.843-4.1 4.965-1.814 1.122-3.929 1.682-6.347 1.682-3.108 0-5.74-1.078-7.856-3.193-2.115-2.115-3.195-4.878-3.195-8.202 0-3.323 1.08-6.086 3.238-8.245 2.115-2.114 4.75-3.194 7.9-3.194zm26.632 17.526c1.079 0 2.288-.346 3.583-1.036l1.64 4.748c-1.986 1.079-3.842 1.597-5.612 1.597-2.633 0-4.705-.734-6.216-2.16-1.51-1.422-2.244-3.538-2.244-6.43v-8.936h-4.62v-4.662h4.62v-6.517h5.698v6.517h7.036v4.662h-7.036v8.504c0 2.46 1.036 3.713 3.15 3.713zm11.954-8.591h10.403c-.345-1.338-.993-2.33-1.899-2.98-.907-.646-1.985-.991-3.195-.991a5.684 5.684 0 0 0-3.28 1.036c-1.036.69-1.727 1.683-2.029 2.935zm5.31-8.935c2.935 0 5.482 1.036 7.597 3.065 2.115 2.072 3.194 4.704 3.324 7.942v1.943h-16.403c.302 1.51.95 2.718 1.943 3.626.992.906 2.114 1.38 3.452 1.38 2.461 0 4.231-.95 5.353-2.848l5.093 1.079c-.906 2.202-2.287 3.843-4.1 4.965-1.813 1.122-3.928 1.682-6.346 1.682-3.108 0-5.74-1.078-7.856-3.193-2.115-2.115-3.195-4.878-3.195-8.202 0-3.323 1.08-6.086 3.238-8.245 2.115-2.114 4.75-3.194 7.9-3.194zm20.285 8.935h10.403c-.345-1.338-.993-2.33-1.899-2.98-.907-.646-1.985-.991-3.195-.991a5.684 5.684 0 0 0-3.28 1.036c-1.036.69-1.727 1.683-2.029 2.935zm5.31-8.935c2.935 0 5.482 1.036 7.597 3.065 2.116 2.072 3.195 4.704 3.325 7.942v1.943h-16.403c.302 1.51.949 2.718 1.943 3.626.992.906 2.114 1.38 3.452 1.38 2.46 0 4.23-.95 5.353-2.848l5.094 1.079c-.907 2.202-2.288 3.843-4.101 4.965-1.813 1.122-3.928 1.682-6.346 1.682-3.108 0-5.741-1.078-7.856-3.193s-3.195-4.878-3.195-8.202c0-3.323 1.08-6.086 3.238-8.245 2.115-2.114 4.749-3.194 7.899-3.194zm28.66.345c.649 0 1.167.043 1.513.172l-.303 5.483h-1.251c-5.137 0-7.685 3.065-7.685 9.238v6.949h-5.697v-21.54h5.697v3.928c1.943-2.806 4.533-4.23 7.727-4.23z"/>
  <path fill="#00d8a2" d="m241.836 102.957-71.023-33.922 71.023-36.57v-14.31l-29.68-13.782-84.097 41.871-85.51-41.87-27.56 14.84v12.72L81.77 68.505l-66.782 33.922v15.37l28.621 14.841 84.803-43.462 82.683 43.462 30.741-14.84z"/>
  <path d="M214.95 126.585v-6.392l23.14-11.991v7.18zm-198.1-18.551 22.36 12.836v5.11l-22.36-11.312zM131.383 81.04l76.92 38.005v7.642l-76.92-39.405zm-85.526 39.117 78.88-39.11v6.233l-78.88 39.908zm55.852-63.905L21.887 17.714 42.561 7.207 128.06 51.53l84.067-44.304 21.404 10.963-77.84 39.174c-3.113 1.566-3.108 6.01.007 7.57l77.038 38.557-19.968 10.347-84.708-43.403-86.206 44.289-19.689-11.303 79.59-39.562c3.152-1.567 3.126-6.075-.045-7.606zM17.844 30.77v-7.014L92.29 60.899l-7.526 3.007zm152.654 33.548c-.102-.062-7.13-3.378-7.13-3.378l74.721-37.605v7.045zm7.48 3.683 65.674-32.976a1.969 1.969 0 0 0 1.085-1.76V17.665a1.97 1.97 0 0 0-1.07-1.752L213.032.222a1.97 1.97 0 0 0-1.788-.003l-82.303 41.764a1.965 1.965 0 0 1-1.769.006L43.42.207a1.97 1.97 0 0 0-1.77.007L11.28 15.648a1.969 1.969 0 0 0-1.078 1.755v15.855c0 .749.425 1.433 1.097 1.765L77.25 67.607l-65.646 32.595a1.968 1.968 0 0 0-1.092 1.727l-.287 15.59a1.969 1.969 0 0 0 1.08 1.793l31.536 15.956a1.97 1.97 0 0 0 1.772.002l82.558-41.455a1.968 1.968 0 0 1 1.775.004l81.53 41.454a1.97 1.97 0 0 0 1.748.017l31.402-15.203a1.969 1.969 0 0 0 1.111-1.771v-16.29c0-.751-.427-1.436-1.1-1.767z"/>
</svg>
